X:1
T:Stobel, 66.46.66.4
T:Stobel, 66.46.66.4
T:Arranged by William Henry Havergal, 1860
T:Public Domain Courtesy of the Cyber Hymnal™
C:Arranged by William Henry Havergal, 1860
Z:Public Domain
Z:Courtesy of the Cyber Hymnal™
%%score ( 1 2 ) ( 3 4 )
L:1/8
Q:1/4=115
M:4/4
K:G
V:1 treble 
V:2 treble 
V:3 bass 
V:4 bass 
V:1
 [B,D]4 [CE]2 [CF]2 | [B,G]2 [DA]2 [DB]4 | [Dd]4 [B,G]2 [Dd]2 | [Ec]2 [DB]2 [DA]4 | %4
 [Dd]4 [DF]2 [^CE]2 | D6 z2 | [B,D]4 [B,G]2 [D=F]2 | [CE]2 [B,D]2 [CE]4 | [^CE]4 [CA]2 [EG]2 | %9
 [DF]2 [^CE]2 [DF]4 | [DA]4 [Dd]2 [Dc]2 | [DB]2 [EA]2 [^DB]4 | [B,G]4 [EG]2 [DF]2 | [DG]8 |] %14
V:2
 x8 | x8 | x8 | x8 | x8 | D6 x2 | x8 | x8 | x8 | x8 | x8 | x8 | x8 | x8 |] %14
V:3
 [G,,G,]4 [C,G,]2 [A,,A,]2 | [E,G,]2 [D,F,]2 G,4 | [D,F,]4 [E,G,]2 [B,,G,]2 | %3
 [C,G,]2 [G,,G,]2 [D,F,]4 | [B,,G,]4 [A,,A,]2 [A,,G,]2 | [D,F,]6 z2 | [G,,G,]4 [G,,G,]2 [B,,G,]2 | %7
 [C,G,]2 G,2 [C,G,]4 | [A,,A,]4 [A,,A,]2 [^C,A,]2 | [D,A,]2 A,2 [D,A,]4 | %10
 [D,F,]4 [B,,G,]2 [D,F,]2 | [G,,G,]2 [C,E,]2 [B,,F,]4 | [E,G,]4 [C,C]2 [D,A,]2 | [G,,B,]8 |] %14
V:4
 x8 | x4 G,4 | x8 | x8 | x8 | x8 | x8 | x2 G,2 x4 | x8 | x2 A,2 x4 | x8 | x8 | x8 | x8 |] %14

